src/svgs/building.svg

<svg xmlns="http://www.w3.org/2000/svg" viewBox="0 0 24 24" width="512" height="512" aria-labelledby="bsbuilding-desc bsbuilding-title"><title id="bsbuilding-title">Building Icon</title><desc id="bsbuilding-desc">A picture depicting a building.</desc><path d="M2 2v20h8v-6h4v6h8V2zm6 16H4v-2h4zm0-4H4v-2h4zm0-4H4V8h4zm0-4H4V4h4zm6 8h-4v-2h4zm0-4h-4V8h4zm0-4h-4V4h4zm6 12h-4v-2h4zm0-4h-4v-2h4zm0-4h-4V8h4zm0-4h-4V4h4z"/></svg>

<svg xmlns="http://www.w3.org/2000/svg" viewBox="0 0 24 24"><path d="M2,2V22h8V16h4v6h8V2ZM8,18H4V16H8Zm0-4H4V12H8Zm0-4H4V8H8ZM8,6H4V4H8Zm6,8H10V12h4Zm0-4H10V8h4Zm0-4H10V4h4Zm6,12H16V16h4Zm0-4H16V12h4Zm0-4H16V8h4Zm0-4H16V4h4Z"/></svg>
